!!!COM:	Bach, Johann Sebastian
!!!CDT:	1685/02/21/-1750/07/28/
!!!OTL@@DE:	Valet will ich dir geben
!!!SCT:	BWV 245/26
!!!PC#:	108
!!!AGN:	chorale
**kern	**kern	**kern	**kern
*ICvox	*ICvox	*ICvox	*ICvox
*Ibass	*Itenor	*Ialto	*Isoprn
*I"Bass	*I"Tenor	*I"Alto	*I"Soprano
*>[A,A,B]	*>[A,A,B]	*>[A,A,B]	*>[A,A,B]
*>norep[A,B]	*>norep[A,B]	*>norep[A,B]	*>norep[A,B]
*>A	*>A	*>A	*>A
*clefF4	*clefGv2	*clefG2	*clefG2
*k[b-e-a-]	*k[b-e-a-]	*k[b-e-a-]	*k[b-e-a-]
*E-:	*E-:	*E-:	*E-:
*M4/4	*M4/4	*M4/4	*M4/4
*met(c)	*met(c)	*met(c)	*met(c)
*MM100	*MM100	*MM100	*MM100
4E-	4G	4B-	4e-
=1	=1	=1	=1
4G	4B-	4e-	4b-
4E-	4e-	4g	4b-
4A-	4e-	4a-	4cc
4BB	4d	4g	4dd
=2	=2	=2	=2
2C	2c	2g	2ee-
4C;	4c;	4g;	4ee-;
4c	4e-	4cc	4gg
=3	=3	=3	=3
4A-	4c	4cc	4ff
4F	4c	4a-	4ee-
4B-	4B-	4g	4ee-
4BB-	4B-	4f	4dd
=4	=4	=4	=4
2.E-;	2.B-;	2.g;	2.ee-;
=:|!	=:|!	=:|!	=:|!
*>B	*>B	*>B	*>B
4E-	4B-	8gL	8ee-L
.	.	8a-J	8ffJ
=5	=5	=5	=5
8e-L	4e-	4b-	4gg
8dJ	.	.	.
8cL	4e-	4cc	4gg
8B-J	.	.	.
4A	4f	4cc	4ff
4F	4f	4a	4ee-
=6	=6	=6	=6
2B-	8fL	8b-L	8ddL
.	8e-J	8aJ	8ccJ
.	4f	4b-	4dd
4BB-;	4d;	4f;	4b-;
4A-X	4f	4b-	4dd
=7	=7	=7	=7
4G	4e-	4b-	4ee-
4F	4f	4b-	4dd
4E-	4g	4b-	4cc
4F	8fL	4a	4cc
.	8e-J	.	.
=8	=8	=8	=8
2.BB-;	2.d;	2.f;	2.b-;
4D	4B-	4f	4b-
=9	=9	=9	=9
4E-	4B-	8e-L	8gL
.	.	8fJ	8a-J
4D-	4e-	4g	4b-
8CL	4e-	4a-	4cc
8DJ	.	.	.
4E	4d-	4g	4b-
=10	=10	=10	=10
2F	2c	4g	4b-
.	.	4f	4a-
4C;	4c;	4e-;	4g;
4D-	4G	4e-	4b-
=11	=11	=11	=11
4C	4A-	4e-	4a-
4BB-	4B-	4e-	4g
4AA-	4c	4e-	4f
4BB-	8B-L	4d	4f
.	8A-J	.	.
=12	=12	=12	=12
2.EE-;	2.G;	2.B-;	2.e-;
==	==	==	==
*-	*-	*-	*-
!!!hum2abc: -Q ''
!!!title: @{PC#}. @{OTL@@DE}
!!!YOR1: 371 vierstimmige Choralges&auml;nge von Johann Sebastian Bach, 
!!!YOR2: 4th ed. by Alfred D&ouml;rffel (Leipzig: Breitkopf und H&auml;rtel, 
!!!YOR2: c.1875). 178 pp. Plate "V.A.10".  reprint: J.S. Bach, 371 Four-Part 
!!!YOR4: Chorales (New York: Associated Music Publishers, Inc., c.1940).
!!!SMS: B&H, 4th ed, Alfred D&ouml;rffel, c.1875, plate V.A.10
!!!EED:  Craig Stuart Sapp
!!!EEV:  2009/05/22
